X: 1747
T: One of the Boys   #2
R: hornpipe, reel
%S: s:2 b:11(5+6)
B: O'Neill's 1850 #1747
Z: Bob Safranek, rjs@gsp.org
Z: Transcription by A. LEE WORMAN
M: C|
L: 1/8
K: Bb
F2 |: B2(Bc) BFDF | BcdB edcB | Bdfg \
[1,3 fdBd | edcB AcAF :|\
[2,4 fecd | B2B2 B2 :|
|: (Bd) |: f2(fg) fdfb | g2(ga) gfga |\
[1,3 bagf edcB | ABcA F2(de) :|\
[2,4 b2(fd) ecAc | B2B2 B2 :|
